packages/katcn/src/icons/svg/underline-solid.svg

<svg width="24" height="25" viewBox="0 0 24 25" fill="none" xmlns="http://www.w3.org/2000/svg">
<path d="M19.9888 21.296H4.01124C3.40449 21.296 3 21.696 3 22.296C3 22.896 3.40449 23.296 4.01124 23.296H19.9888C20.5955 23.296 21 22.896 21 22.296C21 21.696 20.5955 21.296 19.9888 21.296Z" fill="black"/>
<path d="M21 1.29602H17.4C16.8 1.29602 16.4 1.68871 16.4 2.27774C16.4 2.86677 16.8 3.25945 17.4 3.25945H18.2V10.2296C18.2 12.1931 17.2 13.9602 15.8 15.04C14.7 15.8254 13.2 15.9236 12.1 15.1382C10.7 14.0583 9.9 12.0949 9.9 10.2296V3.25945H10.3C10.9 3.25945 11.3 2.86677 11.3 2.27774C11.3 1.68871 10.9 1.29602 10.3 1.29602H8.9H7.5H3C2.4 1.29602 2 1.68871 2 2.27774C2 2.86677 2.4 3.25945 3 3.25945H3.8V9.93512C3.8 14.2547 7.1 17.9852 11.4 18.2797C16.2 18.5742 20.2 14.8437 20.2 10.2296V3.25945H21C21.6 3.25945 22 2.86677 22 2.27774C22 1.68871 21.6 1.29602 21 1.29602Z" fill="black"/>
</svg>

<svg xmlns="http://www.w3.org/2000/svg" fill="none" viewBox="0 0 24 25"><path fill="#000" d="M19.989 21.296H4.01c-.607 0-1.011.4-1.011 1s.404 1 1.011 1h15.98c.607 0 1.011-.4 1.011-1s-.404-1-1.011-1m1.01-20h-3.6c-.6 0-1 .393-1 .982s.4.981 1 .981h.8v6.97c0 1.964-1 3.731-2.4 4.811-1.1.785-2.6.884-3.7.098-1.4-1.08-2.2-3.043-2.2-4.908V3.26h.4c.6 0 1-.393 1-.982 0-.59-.4-.982-1-.982H3c-.6 0-1 .393-1 .982s.4.981 1 .981h.8v6.676c0 4.32 3.3 8.05 7.6 8.345 4.8.294 8.8-3.436 8.8-8.05V3.26h.8c.6 0 1-.393 1-.982 0-.59-.4-.982-1-.982"/></svg>
